rospo-icon-theme-classic-common/32x32/apps/com.github.thejambi.psnotes.svg

<svg height="32" width="32" xmlns="http://www.w3.org/2000/svg"><path d="m25.9995 29.606061v-20.2121216c0-.7722424-.61325-1.3939394-1.375-1.3939394h-18.2495c-.76175 0-1.375.621697-1.375 1.3939394v20.2121216c0 .772242.61325 1.393939 1.375 1.393939h18.2495c.76175 0 1.375-.621697 1.375-1.393939z" opacity=".2"/><path d="m25.9995 28.606061v-20.2121216c0-.7722424-.61325-1.3939394-1.375-1.3939394h-18.2495c-.76175 0-1.375.621697-1.375 1.3939394v20.2121216c0 .772242.61325 1.393939 1.375 1.393939h18.2495c.76175 0 1.375-.621697 1.375-1.393939z" fill="#4691c8"/><path d="m25.9995 8v-2.6666667c0-.7386666-.61325-1.3333333-1.375-1.3333333h-18.2495c-.76175 0-1.375.5946667-1.375 1.3333333v2.6666667z" fill="#474747"/><path d="m7.46875 3c-.2595885 0-.46875.2719098-.46875.609375v2.78125c0 .3374652.2091615.609375.46875.609375h1.0625c.2595885 0 .46875-.2719098.46875-.609375v-2.78125c0-.3374652-.2091615-.609375-.46875-.609375zm5 0c-.259589 0-.46875.2719098-.46875.609375v2.78125c0 .3374652.209161.609375.46875.609375h1.0625c.259589 0 .46875-.2719098.46875-.609375v-2.78125c0-.3374652-.209161-.609375-.46875-.609375zm5 0c-.259589 0-.46875.2719098-.46875.609375v2.78125c0 .3374652.209161.609375.46875.609375h1.0625c.259589 0 .46875-.2719098.46875-.609375v-2.78125c0-.3374652-.209161-.609375-.46875-.609375zm5 0c-.259589 0-.46875.2719098-.46875.609375v2.78125c0 .3374652.209161.609375.46875.609375h1.0625c.259589 0 .46875-.2719098.46875-.609375v-2.78125c0-.3374652-.209161-.609375-.46875-.609375z" opacity=".2"/><path d="m7.46875 2c-.2595885 0-.46875.2719098-.46875.609375v2.78125c0 .3374652.2091615.609375.46875.609375h1.0625c.2595885 0 .46875-.2719098.46875-.609375v-2.78125c0-.3374652-.2091615-.609375-.46875-.609375zm5 0c-.259589 0-.46875.2719098-.46875.609375v2.78125c0 .3374652.209161.609375.46875.609375h1.0625c.259589 0 .46875-.2719098.46875-.609375v-2.78125c0-.3374652-.209161-.609375-.46875-.609375zm5 0c-.259589 0-.46875.2719098-.46875.609375v2.78125c0 .3374652.209161.609375.46875.609375h1.0625c.259589 0 .46875-.2719098.46875-.609375v-2.78125c0-.3374652-.209161-.609375-.46875-.609375zm5 0c-.259589 0-.46875.2719098-.46875.609375v2.78125c0 .3374652.209161.609375.46875.609375h1.0625c.259589 0 .46875-.2719098.46875-.609375v-2.78125c0-.3374652-.209161-.609375-.46875-.609375z" fill="#8e8e8e"/><path d="m7.46875 2c-.2595885 0-.46875.2719098-.46875.609375v1c0-.3374652.2091615-.609375.46875-.609375h1.0625c.2595885 0 .46875.2719098.46875.609375v-1c0-.3374652-.2091615-.609375-.46875-.609375zm5 0c-.259589 0-.46875.2719098-.46875.609375v1c0-.3374652.209161-.609375.46875-.609375h1.0625c.259589 0 .46875.2719098.46875.609375v-1c0-.3374652-.209161-.609375-.46875-.609375zm5 0c-.259589 0-.46875.2719098-.46875.609375v1c0-.3374652.209161-.609375.46875-.609375h1.0625c.259589 0 .46875.2719098.46875.609375v-1c0-.3374652-.209161-.609375-.46875-.609375zm5 0c-.259589 0-.46875.2719098-.46875.609375v1c0-.3374652.209161-.609375.46875-.609375h1.0625c.259589 0 .46875.2719098.46875.609375v-1c0-.3374652-.209161-.609375-.46875-.609375z" fill="#fff" opacity=".1"/><g fill="none" stroke-linecap="round"><path d="m8.0140842 23.985909s3.9997508.464471 3.9997508-1.999872c0-2.464346-3.9997508-1.999875-3.9997508-1.999875m.0000983 7.999596v-7.999498" opacity=".2" stroke="#000" stroke-linejoin="bevel" stroke-width="2"/><path d="m8.0140842 22.985972s3.9997508.464471 3.9997508-1.999872c0-2.464346-3.9997508-1.999875-3.9997508-1.999875m.0000983 7.999596v-7.999498" stroke="#fff" stroke-linejoin="bevel" stroke-width="1.999874"/><path d="m16.006464 26.99958s.504354 1.000903 1.999876 1.00042c1.495517-.00048 1.999871-1.00042 1.999871-2.000356 0-4.214119-3.999747.211149-3.987766-3.990454-.01209-1.009232.471836-2.009168 1.987895-2.009168 1.516054 0 1.999758.999936 1.999758.999936" opacity=".2" stroke="#000" stroke-linejoin="round" stroke-width="2"/><path d="m16.006464 25.999643s.504354 1.000903 1.999876 1.00042c1.495517-.00048 1.999871-1.00042 1.999871-2.000356 0-4.214119-3.999747.211149-3.987766-3.990454-.01209-1.009232.471836-2.009168 1.987895-2.009168 1.516054 0 1.999758.999936 1.999758.999936" stroke="#fff" stroke-linejoin="round" stroke-width="1.999874"/></g><circle cx="11" cy="28" opacity=".2" r="1"/><circle cx="11" cy="27" fill="#fff" r="1"/><circle cx="23" cy="28" opacity=".2" r="1"/><circle cx="23" cy="27" fill="#fff" r="1"/></svg>

<svg xmlns="http://www.w3.org/2000/svg" width="32" height="32" version="1">
 <path style="opacity:0.2" d="m 25.9995,29.606061 0,-20.2121216 C 25.9995,8.621697 25.38625,8 24.6245,8 L 6.375,8 C 5.61325,8 5,8.621697 5,9.3939394 L 5,29.606061 C 5,30.378303 5.61325,31 6.375,31 l 18.2495,0 c 0.76175,0 1.375,-0.621697 1.375,-1.393939 z"/>
 <path style="fill:#4691c8" d="m 25.9995,28.606061 0,-20.2121216 C 25.9995,7.621697 25.38625,7 24.6245,7 L 6.375,7 C 5.61325,7 5,7.621697 5,8.3939394 L 5,28.606061 C 5,29.378303 5.61325,30 6.375,30 l 18.2495,0 c 0.76175,0 1.375,-0.621697 1.375,-1.393939 z"/>
 <path style="fill:#474747" d="m 25.9995,8 0,-2.6666667 C 25.9995,4.5946667 25.38625,4 24.6245,4 L 6.375,4 C 5.61325,4 5,4.5946667 5,5.3333333 L 5,8 Z"/>
 <path d="M 7.46875,3 C 7.2091615,3 7,3.2719098 7,3.609375 l 0,2.78125 C 7,6.7280902 7.2091615,7 7.46875,7 l 1.0625,0 C 8.7908385,7 9,6.7280902 9,6.390625 L 9,3.609375 C 9,3.2719098 8.7908385,3 8.53125,3 l -1.0625,0 z m 5,0 C 12.209161,3 12,3.2719098 12,3.609375 l 0,2.78125 C 12,6.7280902 12.209161,7 12.46875,7 l 1.0625,0 C 13.790839,7 14,6.7280902 14,6.390625 l 0,-2.78125 C 14,3.2719098 13.790839,3 13.53125,3 l -1.0625,0 z m 5,0 C 17.209161,3 17,3.2719098 17,3.609375 l 0,2.78125 C 17,6.7280902 17.209161,7 17.46875,7 l 1.0625,0 C 18.790839,7 19,6.7280902 19,6.390625 l 0,-2.78125 C 19,3.2719098 18.790839,3 18.53125,3 l -1.0625,0 z m 5,0 C 22.209161,3 22,3.2719098 22,3.609375 l 0,2.78125 C 22,6.7280902 22.209161,7 22.46875,7 l 1.0625,0 C 23.790839,7 24,6.7280902 24,6.390625 l 0,-2.78125 C 24,3.2719098 23.790839,3 23.53125,3 l -1.0625,0 z" style="opacity:0.2"/>
 <path style="fill:#8e8e8e" d="M 7.46875 2 C 7.2091615 2 7 2.2719098 7 2.609375 L 7 5.390625 C 7 5.7280902 7.2091615 6 7.46875 6 L 8.53125 6 C 8.7908385 6 9 5.7280902 9 5.390625 L 9 2.609375 C 9 2.2719098 8.7908385 2 8.53125 2 L 7.46875 2 z M 12.46875 2 C 12.209161 2 12 2.2719098 12 2.609375 L 12 5.390625 C 12 5.7280902 12.209161 6 12.46875 6 L 13.53125 6 C 13.790839 6 14 5.7280902 14 5.390625 L 14 2.609375 C 14 2.2719098 13.790839 2 13.53125 2 L 12.46875 2 z M 17.46875 2 C 17.209161 2 17 2.2719098 17 2.609375 L 17 5.390625 C 17 5.7280902 17.209161 6 17.46875 6 L 18.53125 6 C 18.790839 6 19 5.7280902 19 5.390625 L 19 2.609375 C 19 2.2719098 18.790839 2 18.53125 2 L 17.46875 2 z M 22.46875 2 C 22.209161 2 22 2.2719098 22 2.609375 L 22 5.390625 C 22 5.7280902 22.209161 6 22.46875 6 L 23.53125 6 C 23.790839 6 24 5.7280902 24 5.390625 L 24 2.609375 C 24 2.2719098 23.790839 2 23.53125 2 L 22.46875 2 z"/>
 <path style="fill:#ffffff;opacity:0.1" d="M 7.46875 2 C 7.2091615 2 7 2.2719098 7 2.609375 L 7 3.609375 C 7 3.2719098 7.2091615 3 7.46875 3 L 8.53125 3 C 8.7908385 3 9 3.2719098 9 3.609375 L 9 2.609375 C 9 2.2719098 8.7908385 2 8.53125 2 L 7.46875 2 z M 12.46875 2 C 12.209161 2 12 2.2719098 12 2.609375 L 12 3.609375 C 12 3.2719098 12.209161 3 12.46875 3 L 13.53125 3 C 13.790839 3 14 3.2719098 14 3.609375 L 14 2.609375 C 14 2.2719098 13.790839 2 13.53125 2 L 12.46875 2 z M 17.46875 2 C 17.209161 2 17 2.2719098 17 2.609375 L 17 3.609375 C 17 3.2719098 17.209161 3 17.46875 3 L 18.53125 3 C 18.790839 3 19 3.2719098 19 3.609375 L 19 2.609375 C 19 2.2719098 18.790839 2 18.53125 2 L 17.46875 2 z M 22.46875 2 C 22.209161 2 22 2.2719098 22 2.609375 L 22 3.609375 C 22 3.2719098 22.209161 3 22.46875 3 L 23.53125 3 C 23.790839 3 24 3.2719098 24 3.609375 L 24 2.609375 C 24 2.2719098 23.790839 2 23.53125 2 L 22.46875 2 z"/>
 <path d="m 8.0140842,23.985909 c 0,0 3.9997508,0.464471 3.9997508,-1.999872 0,-2.464346 -3.9997508,-1.999875 -3.9997508,-1.999875 m 9.83e-5,7.999596 0,-7.999498" style="opacity:0.2;fill:none;stroke:#000000;stroke-width:2;stroke-linecap:round;stroke-linejoin:bevel"/>
 <path style="fill:none;stroke:#ffffff;stroke-width:1.999874;stroke-linecap:round;stroke-linejoin:bevel" d="m 8.0140842,22.985972 c 0,0 3.9997508,0.464471 3.9997508,-1.999872 0,-2.464346 -3.9997508,-1.999875 -3.9997508,-1.999875 m 9.83e-5,7.999596 0,-7.999498"/>
 <path style="opacity:0.2;fill:none;stroke:#000000;stroke-width:2;stroke-linecap:round;stroke-linejoin:round" d="m 16.006464,26.99958 c 0,0 0.504354,1.000903 1.999876,1.00042 1.495517,-4.8e-4 1.999871,-1.00042 1.999871,-2.000356 0,-4.214119 -3.999747,0.211149 -3.987766,-3.990454 -0.01209,-1.009232 0.471836,-2.009168 1.987895,-2.009168 1.516054,0 1.999758,0.999936 1.999758,0.999936"/>
 <path d="m 16.006464,25.999643 c 0,0 0.504354,1.000903 1.999876,1.00042 1.495517,-4.8e-4 1.999871,-1.00042 1.999871,-2.000356 0,-4.214119 -3.999747,0.211149 -3.987766,-3.990454 -0.01209,-1.009232 0.471836,-2.009168 1.987895,-2.009168 1.516054,0 1.999758,0.999936 1.999758,0.999936" style="fill:none;stroke:#ffffff;stroke-width:1.999874;stroke-linecap:round;stroke-linejoin:round"/>
 <circle cx="11" cy="28" r="1" style="opacity:0.2"/>
 <circle style="fill:#ffffff" cx="11" cy="27" r="1"/>
 <circle style="opacity:0.2" cx="23" cy="28" r="1"/>
 <circle cx="23" cy="27" r="1" style="fill:#ffffff"/>
</svg>
